src/brands/netlify.svg

<?xml version="1.0" encoding="UTF-8" standalone="no"?>
<svg width="142px" height="142px" viewBox="0 0 142 142" version="1.1" xmlns="http://www.w3.org/2000/svg" xmlns:xlink="http://www.w3.org/1999/xlink">
    <!-- Generator: Sketch 39.1 (31720) - http://www.bohemiancoding.com/sketch -->
    <title>logomark</title>
    <desc>Created with Sketch.</desc>
    <defs>
        <radialGradient cx="50%" cy="0%" fx="50%" fy="0%" r="100%" id="radialGradient-1">
            <stop stop-color="#20C6B7" offset="0%"></stop>
            <stop stop-color="#4D9ABF" offset="100%"></stop>
        </radialGradient>
    </defs>
    <g id="Press" stroke="none" stroke-width="1" fill="none" fill-rule="evenodd">
        <g id="press-v4" transform="translate(-289.000000, -1837.000000)" fill="url(#radialGradient-1)">
            <g id="logo-resources" transform="translate(247.000000, 1109.000000)">
                <g id="Group-14" transform="translate(3.000000, 236.000000)">
                    <g id="Group-14-Copy-5" transform="translate(0.000000, 438.000000)">
                        <g id="logomark" transform="translate(39.000000, 54.000000)">
                            <g id="logo-v1-01">
                                <g id="Layer_1">
                                    <g id="Page-1_1_">
                                        <g id="logo">
                                            <g id="Page-1">
                                                <g id="logo-text-dark_jm">
                                                    <path d="M99.9849563,50.2195122 C100.708611,50.5777965 101.311657,51.0555088 101.794093,51.5929352 C101.854398,51.6526493 101.854398,51.6526493 101.914702,51.6526493 L101.975007,51.6526493 L115.845055,45.7409588 C115.905359,45.6812447 115.965664,45.6215307 115.965664,45.5618167 C115.965664,45.5021026 115.965664,45.4423886 115.905359,45.3826745 L102.93988,32.5441548 C102.879575,32.4844407 102.819271,32.4844407 102.819271,32.4844407 L102.758966,32.4844407 C102.698661,32.4844407 102.638357,32.5441548 102.638357,32.6635828 L99.8040426,50.0403701 C99.8643472,50.1000841 99.9246518,50.2195122 99.9849563,50.2195122 Z M71.2196824,38.5752733 C71.8830325,39.5904121 72.3051644,40.784693 72.4257735,41.9789739 C72.4257735,42.038688 72.4860781,42.098402 72.5463827,42.1581161 L93.1705413,50.9360807 L93.2308459,50.9360807 C93.2911504,50.9360807 93.351455,50.9360807 93.351455,50.8763667 C93.9545006,50.3986543 94.6781553,50.0403701 95.4621145,49.8015139 C95.5224191,49.8015139 95.5827236,49.7417998 95.5827236,49.6223717 L98.9597788,28.6627418 C98.9597788,28.6030278 98.9597788,28.5433137 98.8994743,28.4835997 L85.994299,15.6450799 C85.9339944,15.5853659 85.9339944,15.5853659 85.8736899,15.5853659 C85.8133853,15.5853659 85.7530808,15.6450799 85.7530808,15.7047939 L71.2196824,38.2767031 C71.1593778,38.3961312 71.1593778,38.5155593 71.2196824,38.5752733 Z M141.655406,70.8805719 L119.523633,48.9058032 C119.463328,48.8460892 119.403024,48.8460892 119.403024,48.8460892 L119.342719,48.8460892 L104.326884,55.235492 C104.26658,55.2952061 104.206275,55.3549201 104.206275,55.4146341 C104.206275,55.4743482 104.26658,55.5937763 104.326884,55.5937763 L141.353883,71.2985702 L141.414187,71.2985702 C141.474492,71.2985702 141.534796,71.2985702 141.534796,71.2388562 L141.655406,71.1194281 C141.776015,71.1194281 141.776015,70.940286 141.655406,70.8805719 Z M137.976828,74.4634146 L102.457443,59.4154752 L102.397139,59.4154752 C102.336834,59.4154752 102.27653,59.4154752 102.216225,59.4751892 C101.251352,60.7888982 99.8040426,61.6248949 98.115515,61.8637511 C98.0552105,61.8637511 97.9346014,61.9234651 97.9346014,62.0428932 L94.1354142,85.3910849 C94.1354142,85.450799 94.1354142,85.510513 94.1957188,85.5702271 C95.5224191,86.5853659 96.3063783,88.078217 96.487292,89.7502103 C96.487292,89.8696384 96.5475965,89.9293524 96.6682057,89.9293524 L118.136628,94.4079058 L118.196933,94.4079058 C118.257237,94.4079058 118.317542,94.4079058 118.317542,94.3481918 L137.976828,74.8216989 C138.037132,74.7619849 138.037132,74.7022708 138.037132,74.6425568 C138.037132,74.5828427 138.037132,74.5231287 137.976828,74.4634146 Z M90.9392727,54.5189235 L71.5212052,46.2783852 L71.4609006,46.2783852 C71.4005961,46.2783852 71.3402915,46.3380992 71.279987,46.3978133 C69.9532867,48.4280908 67.7220181,49.6223717 65.3098358,49.6223717 C64.9480084,49.6223717 64.5861811,49.5626577 64.1640492,49.5029437 L64.1037446,49.5029437 C64.0434401,49.5029437 63.9831355,49.5626577 63.9228309,49.6223717 L47.9421232,74.4037006 C47.8818186,74.4634146 47.8818186,74.5828427 47.9421232,74.6425568 C48.0024278,74.7022708 48.0627323,74.7022708 48.1230369,74.7022708 L48.1833414,74.7022708 L90.8186636,56.489487 C90.8789681,56.4297729 90.9392727,56.3700589 90.9392727,56.3103448 L90.9392727,56.0714886 L90.9392727,55.7729184 C90.9392727,55.4146341 90.9995773,55.0563499 91.0598818,54.7577796 C91.0598818,54.6383516 90.9995773,54.5786375 90.9392727,54.5189235 Z M114.337441,97.8713204 L95.4621145,93.9899075 L95.40181,93.9899075 C95.3415054,93.9899075 95.2812008,94.0496215 95.2208963,94.0496215 C94.4972416,94.9453322 93.5926732,95.6619008 92.5071912,96.0798991 C92.4468866,96.0798991 92.3865821,96.1993272 92.3865821,96.2590412 L87.8637403,124.085786 C87.8637403,124.205214 87.9240448,124.264929 87.9843494,124.324643 L88.1049585,124.324643 C88.1652631,124.324643 88.2255676,124.324643 88.2255676,124.264929 L114.397746,98.2893188 C114.45805,98.2296047 114.45805,98.1698907 114.45805,98.1101766 C114.45805,97.9310345 114.397746,97.8713204 114.337441,97.8713204 Z M87.9843494,95.960471 C86.1752127,95.2439024 84.8485124,93.6316232 84.3660759,91.7804878 C84.3660759,91.7207738 84.3057714,91.6610597 84.1851623,91.6013457 L49.2085189,84.3759462 C49.2085189,84.3759462 49.2085189,84.3759462 49.1482144,84.3759462 C49.0879098,84.3759462 49.0276052,84.4356602 48.9673007,84.4953743 C48.786387,84.7939445 48.6657779,85.0328007 48.4848642,85.2716569 C48.4245597,85.3313709 48.4245597,85.450799 48.4848642,85.510513 L80.3256706,131.609756 C80.3859751,131.66947 80.3859751,131.66947 80.4462797,131.66947 C80.5065843,131.66947 80.5668888,131.66947 80.5668888,131.609756 L82.4966346,129.698907 C82.4966346,129.639193 82.5569392,129.639193 82.5569392,129.579479 L87.9843494,96.1396131 C88.1049585,96.1396131 88.1049585,96.020185 87.9843494,95.960471 Z M49.9321736,80.1362489 C49.9321736,80.255677 49.9924782,80.3153911 50.1130873,80.3153911 L84.7882078,87.4810765 L84.8485124,87.4810765 C84.9088169,87.4810765 84.9691215,87.4213625 85.0294261,87.3616484 C86.0546035,85.5702271 87.8637403,84.3759462 89.9140952,84.2565181 C90.0347043,84.2565181 90.0950089,84.196804 90.0950089,84.0773759 L93.8338915,61.0874685 C93.8338915,61.0277544 93.8338915,60.9083263 93.7132823,60.9083263 C93.4720641,60.7291842 93.2308459,60.5500421 92.9293231,60.2514718 C92.8690185,60.1917578 92.808714,60.1917578 92.808714,60.1917578 L92.7484094,60.1917578 L49.871869,78.5239697 C49.7512599,78.5836838 49.7512599,78.6433978 49.7512599,78.7628259 C49.8115645,79.2405383 49.9321736,79.6585366 49.9321736,80.1362489 Z M35.3987752,85.9285114 C35.2178616,85.6896552 35.0369479,85.450799 34.8560342,85.1522288 C34.7957297,85.0925147 34.7354251,85.0328007 34.6751206,85.0328007 L34.614816,85.0328007 L19.6592857,91.4222035 C19.5989812,91.4222035 19.5386766,91.4819176 19.5386766,91.5416316 C19.5386766,91.6013457 19.5386766,91.6610597 19.5989812,91.7207738 L26.8958326,98.9461733 C26.9561372,99.0058873 27.0164418,99.0058873 27.0164418,99.0058873 C27.0767463,99.0058873 27.1370509,98.9461733 27.1973554,98.8864592 L35.4590798,86.0479394 C35.4590798,86.0479394 35.4590798,85.9882254 35.3987752,85.9285114 Z M45.2887227,88.2573591 C45.2284181,88.1976451 45.1681136,88.137931 45.107809,88.137931 L45.0475044,88.137931 C43.9620224,88.6156434 42.8765404,88.8544996 41.7307538,88.8544996 C40.8261854,88.8544996 39.9819216,88.7350715 39.0773533,88.4365013 L39.0170487,88.4365013 C38.9567441,88.4365013 38.8964396,88.4962153 38.836135,88.5559294 L30.1522787,102.051304 L30.0919742,102.111018 C30.0316696,102.170732 30.0316696,102.29016 30.0919742,102.349874 L70.0135912,141.940286 C70.0738958,142 70.1342004,142 70.1342004,142 C70.1945049,142 70.2548095,142 70.2548095,141.940286 L77.2501381,134.953743 C77.3104427,134.894029 77.3104427,134.774601 77.2501381,134.714886 L45.2887227,88.2573591 Z M39.6803988,72.6719933 C39.7407034,72.7317073 39.8010079,72.7914214 39.8613125,72.7914214 L39.9216171,72.7914214 C40.5246626,72.6719933 41.1880128,72.5525652 41.7910583,72.5525652 C42.4544085,72.5525652 43.1780632,72.6719933 43.8414133,72.8511354 L43.9017179,72.8511354 C43.9620224,72.8511354 44.022327,72.7914214 44.0826315,72.7317073 L60.2442529,47.6518082 C60.3045575,47.5920942 60.3045575,47.4726661 60.2442529,47.4129521 C58.9778572,46.0992431 58.2542025,44.3675357 58.2542025,42.5164003 C58.2542025,41.9789739 58.3145071,41.4415475 58.4351162,40.9041211 C58.4351162,40.784693 58.3748117,40.724979 58.3145071,40.6652649 C56.2641521,39.7695542 38.1124803,32.1261564 38.1124803,32.0664424 L38.0521758,32.0664424 C37.9918712,32.0664424 37.9315667,32.0664424 37.9315667,32.1261564 L22.5539045,47.4129521 C22.4935999,47.4726661 22.4935999,47.5920942 22.5539045,47.6518082 L39.6803988,72.6719933 Z M41.429231,28.961312 C41.429231,28.961312 59.7618165,36.7241379 60.5457757,37.0824222 L60.6060803,37.0824222 C60.6663848,37.0824222 60.6663848,37.0824222 60.7266894,37.0227082 C61.9930851,36.0075694 63.6213082,35.4104289 65.2495312,35.4104289 C66.0334905,35.4104289 66.8174497,35.529857 67.6014089,35.7687132 L67.6617135,35.7687132 C67.7220181,35.7687132 67.7823226,35.7089992 67.8426272,35.6492851 L82.7378529,12.5399495 C82.7981574,12.4802355 82.7981574,12.3608074 82.7378529,12.3010934 L70.3754186,0.0597140454 C70.315114,0 70.315114,0 70.2548095,0 C70.1945049,0 70.1342004,0 70.1342004,0.0597140454 L41.429231,28.6030278 C41.3689264,28.6627418 41.3689264,28.7224558 41.3689264,28.7821699 C41.3086219,28.901598 41.3689264,28.901598 41.429231,28.961312 Z M34.3132932,77.0311186 C34.3735978,77.0311186 34.4339023,76.9714045 34.4942069,76.9116905 C34.8560342,76.195122 35.3987752,75.5382675 35.9415163,74.941127 C36.0018208,74.881413 36.0018208,74.7619849 35.9415163,74.7022708 C35.7606026,74.4634146 19.4180675,50.8166526 19.4180675,50.7569386 C19.357763,50.6972246 19.357763,50.6972246 19.2371538,50.6375105 C19.1768493,50.6375105 19.1165447,50.6375105 19.1165447,50.6972246 L0.0603045575,69.5668629 C0,69.626577 0,69.686291 0,69.746005 C0,69.8057191 0.0603045575,69.8654331 0.180913672,69.8654331 L34.3132932,77.0311186 C34.2529887,77.0311186 34.2529887,77.0311186 34.3132932,77.0311186 Z M32.7453747,81.1513877 C32.7453747,81.0319596 32.6850702,80.9722456 32.564461,80.9722456 L2.95492332,74.8216989 C2.95492332,74.8216989 2.95492332,74.8216989 2.89461876,74.8216989 C2.8343142,74.8216989 2.77400964,74.881413 2.71370509,74.941127 C2.65340053,75.000841 2.71370509,75.1202691 2.77400964,75.1799832 L15.9807077,88.3170732 C16.0410123,88.3767872 16.1013169,88.3767872 16.1013169,88.3767872 L16.1616214,88.3767872 L32.564461,81.3902439 C32.6850702,81.2708158 32.7453747,81.2111018 32.7453747,81.1513877 Z" id="Combined-Shape"></path>
                                                </g>
                                            </g>
                                        </g>
                                    </g>
                                </g>
                            </g>
                        </g>
                    </g>
                </g>
            </g>
        </g>
    </g>
</svg>

<?xml version="1.0" encoding="UTF-8" standalone="no"?><!DOCTYPE svg PUBLIC "-//W3C//DTD SVG 1.1//EN" "http://www.w3.org/Graphics/SVG/1.1/DTD/svg11.dtd"><svg width="100%" height="100%" viewBox="0 0 142 142" version="1.1" xmlns="http://www.w3.org/2000/svg" xmlns:xlink="http://www.w3.org/1999/xlink" xml:space="preserve" xmlns:serif="http://www.serif.com/" style="fill-rule:evenodd;clip-rule:evenodd;stroke-linejoin:round;stroke-miterlimit:1.41421;"><path id="Combined-Shape" d="M99.985,50.22c0.724,0.358 1.327,0.836 1.809,1.373c0.06,0.06 0.06,0.06 0.121,0.06l0.06,0l13.87,-5.912c0.06,-0.06 0.121,-0.119 0.121,-0.179c0,-0.06 0,-0.12 -0.061,-0.179l-12.965,-12.839c-0.06,-0.06 -0.121,-0.06 -0.121,-0.06l-0.06,0c-0.06,0 -0.121,0.06 -0.121,0.18l-2.834,17.376c0.06,0.06 0.121,0.18 0.181,0.18Zm-28.765,-11.645c0.663,1.015 1.085,2.21 1.206,3.404c0,0.06 0.06,0.119 0.12,0.179l20.625,8.778l0.06,0c0.06,0 0.12,0 0.12,-0.06c0.604,-0.477 1.327,-0.836 2.111,-1.074c0.06,0 0.121,-0.06 0.121,-0.18l3.377,-20.959c0,-0.06 0,-0.12 -0.061,-0.179l-12.905,-12.839c-0.06,-0.06 -0.06,-0.06 -0.12,-0.06c-0.061,0 -0.121,0.06 -0.121,0.12l-14.533,22.572c-0.061,0.119 -0.061,0.239 0,0.298Zm70.435,32.306l-22.131,-21.975c-0.061,-0.06 -0.121,-0.06 -0.121,-0.06l-0.06,0l-15.016,6.389c-0.06,0.06 -0.121,0.12 -0.121,0.18c0,0.059 0.061,0.179 0.121,0.179l37.027,15.705l0.06,0c0.06,0 0.121,0 0.121,-0.06l0.12,-0.12c0.121,0 0.121,-0.179 0,-0.238Zm-3.678,3.582l-35.52,-15.048l-0.06,0c-0.06,0 -0.12,0 -0.181,0.06c-0.965,1.314 -2.412,2.15 -4.1,2.389c-0.061,0 -0.181,0.059 -0.181,0.179l-3.8,23.348c0,0.06 0,0.12 0.061,0.179c1.326,1.015 2.11,2.508 2.291,4.18c0,0.12 0.061,0.179 0.181,0.179l21.469,4.479l0.06,0c0.06,0 0.121,0 0.121,-0.06l19.659,-19.526c0.06,-0.06 0.06,-0.12 0.06,-0.179c0,-0.06 0,-0.12 -0.06,-0.18Zm-47.038,-19.944l-19.418,-8.241l-0.06,0c-0.06,0 -0.121,0.06 -0.181,0.12c-1.327,2.03 -3.558,3.224 -5.97,3.224c-0.362,0 -0.724,-0.059 -1.146,-0.119l-0.06,0c-0.061,0 -0.121,0.06 -0.181,0.119l-15.981,24.782c-0.06,0.059 -0.06,0.179 0,0.239c0.06,0.059 0.121,0.059 0.181,0.059l0.06,0l42.636,-18.213c0.06,-0.059 0.12,-0.119 0.12,-0.179l0,-0.239l0,-0.298c0,-0.358 0.061,-0.717 0.121,-1.015c0,-0.12 -0.06,-0.179 -0.121,-0.239Zm23.398,43.352l-18.875,-3.881l-0.06,0c-0.06,0 -0.121,0.06 -0.181,0.06c-0.724,0.895 -1.628,1.612 -2.714,2.03c-0.06,0 -0.12,0.119 -0.12,0.179l-4.523,27.827c0,0.119 0.06,0.179 0.12,0.239l0.121,0c0.06,0 0.121,0 0.121,-0.06l26.172,-25.976c0.06,-0.059 0.06,-0.119 0.06,-0.179c0,-0.179 -0.06,-0.239 -0.121,-0.239Zm-26.353,-1.911c-1.809,-0.716 -3.135,-2.328 -3.618,-4.18c0,-0.059 -0.06,-0.119 -0.181,-0.179l-34.976,-7.225l-0.061,0c-0.06,0 -0.12,0.06 -0.181,0.119c-0.181,0.299 -0.301,0.538 -0.482,0.777c-0.06,0.059 -0.06,0.179 0,0.239l31.841,46.099c0.06,0.059 0.06,0.059 0.12,0.059c0.061,0 0.121,0 0.121,-0.059l1.93,-1.911c0,-0.06 0.06,-0.06 0.06,-0.12l5.427,-33.439c0.121,0 0.121,-0.12 0,-0.18Zm-38.052,-15.824c0,0.12 0.06,0.179 0.181,0.179l34.675,7.166l0.061,0c0.06,0 0.12,-0.06 0.18,-0.119c1.026,-1.792 2.835,-2.986 4.885,-3.105c0.121,0 0.181,-0.06 0.181,-0.18l3.739,-22.99c0,-0.059 0,-0.179 -0.121,-0.179c-0.241,-0.179 -0.482,-0.358 -0.784,-0.657c-0.06,-0.059 -0.12,-0.059 -0.12,-0.059l-0.061,0l-42.876,18.332c-0.121,0.06 -0.121,0.119 -0.121,0.239c0.061,0.478 0.181,0.896 0.181,1.373Zm-14.533,5.793c-0.181,-0.239 -0.362,-0.478 -0.543,-0.777c-0.06,-0.059 -0.121,-0.119 -0.181,-0.119l-0.06,0l-14.956,6.389c-0.06,0 -0.12,0.06 -0.12,0.12c0,0.059 0,0.119 0.06,0.179l7.297,7.225c0.06,0.06 0.12,0.06 0.12,0.06c0.061,0 0.121,-0.06 0.181,-0.12l8.262,-12.838c0,0 0,-0.06 -0.06,-0.119Zm9.89,2.328c-0.061,-0.059 -0.121,-0.119 -0.181,-0.119l-0.06,0c-1.086,0.478 -2.171,0.716 -3.317,0.716c-0.905,0 -1.749,-0.119 -2.654,-0.417l-0.06,0c-0.06,0 -0.121,0.059 -0.181,0.119l-8.684,13.495l-0.06,0.06c-0.06,0.06 -0.06,0.179 0,0.239l39.922,39.59c0.06,0.06 0.12,0.06 0.12,0.06c0.061,0 0.121,0 0.121,-0.06l6.995,-6.986c0.06,-0.06 0.06,-0.179 0,-0.239l-31.961,-46.458Zm-5.609,-15.585c0.061,0.06 0.121,0.119 0.181,0.119l0.061,0c0.603,-0.119 1.266,-0.238 1.869,-0.238c0.663,0 1.387,0.119 2.05,0.298l0.061,0c0.06,0 0.12,-0.06 0.181,-0.119l16.161,-25.08c0.061,-0.06 0.061,-0.179 0,-0.239c-1.266,-1.314 -1.99,-3.045 -1.99,-4.897c0,-0.537 0.061,-1.074 0.181,-1.612c0,-0.119 -0.06,-0.179 -0.12,-0.239c-2.051,-0.895 -20.203,-8.539 -20.203,-8.599l-0.06,0c-0.06,0 -0.12,0 -0.12,0.06l-15.378,15.287c-0.06,0.06 -0.06,0.179 0,0.239l17.126,25.02Zm1.749,-43.711c0,0 18.333,7.763 19.117,8.121l0.06,0c0.06,0 0.06,0 0.121,-0.059c1.266,-1.015 2.894,-1.613 4.523,-1.613c0.783,0 1.567,0.12 2.351,0.359l0.061,0c0.06,0 0.12,-0.06 0.181,-0.12l14.895,-23.109c0.06,-0.06 0.06,-0.179 0,-0.239l-12.363,-12.241c-0.06,-0.06 -0.06,-0.06 -0.12,-0.06c-0.06,0 -0.121,0 -0.121,0.06l-28.705,28.543c-0.06,0.06 -0.06,0.119 -0.06,0.179c-0.06,0.12 0,0.12 0.06,0.179Zm-7.116,48.07c0.061,0 0.121,-0.06 0.181,-0.119c0.362,-0.717 0.905,-1.374 1.448,-1.971c0.06,-0.06 0.06,-0.179 0,-0.239c-0.181,-0.239 -16.524,-23.885 -16.524,-23.945c-0.06,-0.06 -0.06,-0.06 -0.181,-0.119c-0.06,0 -0.12,0 -0.12,0.059l-19.057,18.87c-0.06,0.06 -0.06,0.119 -0.06,0.179c0,0.06 0.06,0.119 0.181,0.119l34.132,7.166c-0.06,0 -0.06,0 0,0Zm-1.568,4.12c0,-0.119 -0.06,-0.179 -0.181,-0.179l-29.609,-6.15l-0.06,0c-0.061,0 -0.121,0.059 -0.181,0.119c-0.061,0.06 0,0.179 0.06,0.239l13.207,13.137c0.06,0.06 0.12,0.06 0.12,0.06l0.061,0l16.402,-6.987c0.121,-0.119 0.181,-0.179 0.181,-0.239Z" style="fill:url(#_Radial1);"/><defs><radialGradient id="_Radial1" cx="0" cy="0" r="1" gradientUnits="userSpaceOnUse" gradientTransform="matrix(142,0,0,142,70.8729,0)"><stop offset="0" style="stop-color:#20c6b7;stop-opacity:1"/><stop offset="1" style="stop-color:#4d9abf;stop-opacity:1"/></radialGradient></defs></svg>
